X:165
T:Marche des Cabrettaires
M:2/4
L:1/8
K:G
DGA | B2 B2 BcBA | G2 G>A GDGA | B2 G2 F2 G2 | 
A>B cB A2 AB | c2 c2 cdcB | A2 A>B A2 Bc | 
d2 d>e dcBA | Ggfe dBGA | B2 B2 BcBA | G2G>A GDGA
B2 d2 c2 B2 | A>B cB A2 AB | c2 c2 cdcB | 
A2 A>B A2 Bc | d2 d>e dcBA | G4G3 | 
d |: B d B d B3 d | e>dcB c A2 c | A c A c A3 c
|1 d>cBA B3 d :|2 d>cBAG | 

